X:1
T:Two-Cent Coal
M:6/8
L:1/8
K:G
 D2 C| B,2 D G2 F| AAF D2 C| B,2 D G2 F| G2 z z2G/2-c/2| B2 G B2 c|\
 d2c/2-B/2| c2c/2-d/2| GG F- F2 E| D2 z z2B/2-c/2| B2 GB c2| d B2 c2 d|\
 G2 G| F2 E| D2 z z2 D| E2 Ec-B c| A2 B D2 E| F2 F G2 G|G/2-F/2 G|\
 z2 z| z2 z||
